!! 00008] TT[TB
!! Eigene Aufnahme
!!!OTL: Tian e
!!!ARE: Neimeng Bayanzhuormeng
!! Ethnic Group: Menggu
!! IV, 339
!!!SCT: C0186
!!!YEM: Copyright 1995, estate of Helmut Schaffrath.
**kern
*ICvox
*Ivox
*M4/4
*k[b-]
*F:
{4a
8f
8d
2c
=1
4cc
8dd
8ff
2dd
=2
4dd
8cc
8a
8f
8g
8cc
8a
=3
1g}
=4
{4cc
8dd
8ff
2dd
=5
4g
8f
8d
4.c
8d
=6
4a
8f
8d
8c
8d
4a
=7
1d}
==
!!!AGN: Yan ge. Jiuxiyanhui shang chang
!! Saenger: Chao Lun Batou; 2 Strophen
!!!ONB: ESAC (Essen Associative Code) Database: CHINA
!!!AMT: simple quadruple
!!!AIN: vox
!!!EED: Helmut Schaffrath
!!!EEV: 1.0
*-
